X:171
T:This is ye Webye onte(??) HA.170
M:C
L:1/8
Q:1/2=70
S:Henry Atkinson’s original MS,Hartburn,N’umberland,1694.
O:England
A:Hartburn,Northumberland
N:No key given, though seems to be in D. If it is really in C,
N:the Blues was invented here Tune goes a little awry at the end. NBr
N:The word “Schott” is written in between the two lines, in a different
N:hand. NBr
H:1/8
Z:vmp.Neil Brookes, Jan.2004
K:D
“_no key sig.in MS ”
d2|dBAB defd|efed BdeB|defa fdef |d2 A2-A2 de|
fdeB dABF|AFED A,4|A,2 DEFA G,2| E2D2A,2C2| D4|]

